!!!OTL: HIER TRETEN WIR HER MIT UNSERM STERN
!!!ARE: Europa, Mitteleuropa, Deutschland, Schleswig, Westkueste
!!!SCT: K1703
!!!YEM: Copyright 1995, estate of Helmut Schaffrath.
**kern
*ICvox
*Ivox
*M3/4
*k[b-]
*F:
{4c
=1
2f
4e
=2
2f
4f
=3
4f
4a
4g
=4
2f}
{8g
8a
=5
4.b-
8g
8cc
8b-
=6
4.a
8g
4f
=7
4.g
8f
4e
=8
2f}
{8g
8a
=9
4.b-
8g
8cc
8b-
=10
4.a
8g
4f
=11
4.g
8f
4e
=12
2f}
==
!!!AGN: Kinder -, Ansinge - Lied, Bettel - Reim
!!!ONB: ESAC (Essen Associative Code) Database: KINDER
!!!AMT: simple triple
!!!AIN: vox
!!!EED: Helmut Schaffrath
!!!EEV: 1.0
*-
